X: 40381
T: Tom Hackett's Dream
R: jig
M: 6/8
K: Gmajor
|:A|B^AB GB/c/d|e2 c cde|dBG dBG|FGA ABc|
B^AB GBd|ecG cde|dBG FGA|BGF G2:|
|:d/c/|B2 d gdB|c2 e gec|B2 d gdB|Aag fdc|
BGd gdB|cGe gec|B^AB cAF|AGF G2:|

